src/pos-icons/account-alert.svg

<svg height="24" viewBox="0 0 24 24" width="24" xmlns="http://www.w3.org/2000/svg"><path d="m10 4a4 4 0 0 1 4 4 4 4 0 0 1 -4 4 4 4 0 0 1 -4-4 4 4 0 0 1 4-4m0 10c4.42 0 8 1.79 8 4v2h-16v-2c0-2.21 3.58-4 8-4m10-2v-5h2v5zm0 4v-2h2v2z"/></svg>

<?xml version="1.0" encoding="UTF-8"?><!DOCTYPE svg PUBLIC "-//W3C//DTD SVG 1.1//EN" "http://www.w3.org/Graphics/SVG/1.1/DTD/svg11.dtd"><svg xmlns="http://www.w3.org/2000/svg" xmlns:xlink="http://www.w3.org/1999/xlink" version="1.1" id="mdi-account-alert" width="24" height="24" viewBox="0 0 24 24"><path d="M10,4A4,4 0 0,1 14,8A4,4 0 0,1 10,12A4,4 0 0,1 6,8A4,4 0 0,1 10,4M10,14C14.42,14 18,15.79 18,18V20H2V18C2,15.79 5.58,14 10,14M20,12V7H22V12H20M20,16V14H22V16H20Z" /></svg>
